site/components/case-study/SVG/sky-figure.svg

<?xml version="1.0" encoding="UTF-8" standalone="no"?>
<svg width="388px" height="150px" viewBox="0 0 388 150" version="1.1" xmlns="http://www.w3.org/2000/svg" xmlns:xlink="http://www.w3.org/1999/xlink">
    <!-- Generator: sketchtool 40.1 (33804) - http://www.bohemiancoding.com/sketch -->
    <title>5ACDB4A4-8391-4F0D-B612-DECE0B02E4F1</title>
    <desc>Created with sketchtool.</desc>
    <defs></defs>
    <g id="Symbols" stroke="none" stroke-width="1" fill="none" fill-rule="evenodd">
        <g id="Sky-fact" transform="translate(-100.000000, -60.000000)" fill="#F8F8F8">
            <g id="50%" transform="translate(100.000000, 60.000000)">
                <g id="Group">
                    <path d="M28.0688623,35.254491 C37.7245509,38.8473054 48.7275449,41.5419162 64.2215569,41.5419162 C84.4311377,41.5419162 101.272455,33.008982 111.826347,11.9011976 L105.08982,0 C93.1886228,5.83832335 83.757485,8.53293413 67.1407186,8.53293413 C52.7694611,8.53293413 33.008982,6.28742515 18.1886228,1.34730539 L11.6766467,7.18562874 L6.51197605,82.1856287 L22.6796407,87.1257485 C29.4161677,81.7365269 39.0718563,78.3682635 45.8083832,78.3682635 C61.5269461,78.3682635 69.8353293,86.002994 69.8353293,105.314371 C69.8353293,123.053892 61.0778443,133.158683 46.0329341,133.158683 C40.4191617,133.158683 34.3562874,131.811377 30.988024,130.01497 C36.3772455,126.646707 39.745509,120.808383 39.745509,113.847305 C39.745509,105.763473 33.6826347,97.4550898 21.3323353,97.4550898 C8.08383234,97.4550898 0,106.661677 0,118.787425 C0,138.547904 21.5568862,150 54.7904192,150 C94.5359281,150 113.847305,126.871257 113.847305,100.823353 C113.847305,77.9191617 99.7005988,57.4850299 61.751497,57.4850299 C48.7275449,57.4850299 35.7035928,61.5269461 25.3742515,69.6107784 L28.0688623,35.254491 Z M190.419162,150 C226.122754,150 252.61976,123.053892 252.61976,74.5508982 C252.61976,26.7215569 226.571856,0.449101796 190.419162,0.449101796 C154.94012,0.449101796 128.218563,27.8443114 128.218563,75.8982036 C128.218563,123.727545 154.266467,150 190.419162,150 L190.419162,150 Z M191.092814,131.362275 C178.742515,131.362275 170.883234,118.562874 170.883234,75.4491018 C170.883234,32.3353293 177.61976,19.0868263 189.745509,19.0868263 C202.095808,19.0868263 209.95509,31.8862275 209.95509,75 C209.95509,118.113772 203.218563,131.362275 191.092814,131.362275 L191.092814,131.362275 Z" id="50"></path>
                    <path d="M294.21976,106.2 C310.41976,106.2 323.91976,87.9 323.91976,70.05 L323.91976,69.6 C325.26976,69.75 326.91976,69.75 328.71976,69.75 C335.16976,69.75 341.01976,67.8 346.56976,63.3 L347.01976,63.75 L288.51976,149.7 L304.56976,149.7 L370.86976,48 L358.41976,48 C350.76976,54.9 342.96976,58.5 333.06976,58.5 C326.91976,58.5 322.26976,57.6 318.51976,55.95 C315.06976,52.5 309.81976,50.55 303.36976,50.55 C287.31976,50.55 272.61976,67.5 272.61976,85.05 C272.61976,98.25 282.06976,106.2 294.21976,106.2 L294.21976,106.2 Z M357.96976,147.9 C374.16976,147.9 387.66976,129.6 387.66976,111.75 C387.66976,99.75 379.86976,92.25 367.11976,92.25 C351.06976,92.25 336.36976,109.2 336.36976,126.75 C336.36976,139.95 345.81976,147.9 357.96976,147.9 L357.96976,147.9 Z M361.41976,138.6 C357.21976,138.6 354.51976,135.45 354.51976,129.6 C354.51976,118.8 362.16976,102.3 370.86976,102.3 C375.06976,102.3 377.61976,105.45 377.61976,110.7 C377.61976,122.1 370.11976,138.6 361.41976,138.6 L361.41976,138.6 Z M297.66976,96.9 C293.46976,96.9 290.76976,93.75 290.76976,87.9 C290.76976,78.3 296.91976,64.05 304.41976,61.2 C306.96976,63.75 309.96976,66 313.71976,67.5 C313.86976,67.95 313.86976,68.55 313.86976,69 C313.86976,80.4 306.36976,96.9 297.66976,96.9 L297.66976,96.9 Z" id="%-copy"></path>
                </g>
            </g>
        </g>
    </g>
</svg>

<svg width="388" height="150" viewBox="0 0 388 150" xmlns="http://www.w3.org/2000/svg"><g fill="#F8F8F8" fill-rule="evenodd"><path d="M28.069 35.254c9.656 3.593 20.659 6.288 36.153 6.288 20.21 0 37.05-8.533 47.604-29.64L105.09 0C93.189 5.838 83.757 8.533 67.14 8.533c-14.37 0-34.131-2.246-48.951-7.186l-6.512 5.839-5.165 75 16.168 4.94c6.736-5.39 16.392-8.758 23.128-8.758 15.719 0 24.027 7.635 24.027 26.946 0 17.74-8.757 27.845-23.802 27.845-5.614 0-11.677-1.348-15.045-3.144 5.39-3.368 8.758-9.207 8.758-16.168 0-8.084-6.063-16.392-18.414-16.392C8.084 97.455 0 106.662 0 118.787 0 138.547 21.557 150 54.79 150c39.746 0 59.057-23.129 59.057-49.177 0-22.904-14.146-43.338-52.096-43.338-13.023 0-26.047 4.042-36.377 12.126l2.695-34.357zM190.419 150c35.704 0 62.2-26.946 62.2-75.45 0-47.828-26.047-74.1-62.2-74.1-35.479 0-62.2 27.394-62.2 75.448 0 47.83 26.047 74.102 62.2 74.102zm.674-18.638c-12.35 0-20.21-12.8-20.21-55.913 0-43.114 6.737-56.362 18.863-56.362 12.35 0 20.21 12.8 20.21 55.913 0 43.114-6.737 56.362-18.863 56.362zM294.22 106.2c16.2 0 29.7-18.3 29.7-36.15v-.45c1.35.15 3 .15 4.8.15 6.45 0 12.3-1.95 17.85-6.45l.45.45-58.5 85.95h16.05L370.87 48h-12.45c-7.65 6.9-15.45 10.5-25.35 10.5-6.15 0-10.8-.9-14.55-2.55-3.45-3.45-8.7-5.4-15.15-5.4-16.05 0-30.75 16.95-30.75 34.5 0 13.2 9.45 21.15 21.6 21.15zm63.75 41.7c16.2 0 29.7-18.3 29.7-36.15 0-12-7.8-19.5-20.55-19.5-16.05 0-30.75 16.95-30.75 34.5 0 13.2 9.45 21.15 21.6 21.15zm3.45-9.3c-4.2 0-6.9-3.15-6.9-9 0-10.8 7.65-27.3 16.35-27.3 4.2 0 6.75 3.15 6.75 8.4 0 11.4-7.5 27.9-16.2 27.9zm-63.75-41.7c-4.2 0-6.9-3.15-6.9-9 0-9.6 6.15-23.85 13.65-26.7 2.55 2.55 5.55 4.8 9.3 6.3.15.45.15 1.05.15 1.5 0 11.4-7.5 27.9-16.2 27.9z"/></g></svg>
